public/images/logo.svg

<svg width="132" height="16" viewBox="0 0 132 16" fill="none" xmlns="http://www.w3.org/2000/svg">
<path d="M20.6251 12.4791C20.6251 13.029 20.5032 13.4973 20.259 13.8842C20.015 14.2712 19.6842 14.5971 19.2671 14.8619C18.8501 15.1268 18.3566 15.3253 17.7872 15.4576C17.2174 15.5898 16.6172 15.6561 15.9867 15.6561H4.66451C4.05411 15.6561 3.47434 15.5796 2.9249 15.427C2.37575 15.2741 1.89251 15.0604 1.47547 14.7854C1.05843 14.5104 0.727579 14.1797 0.483337 13.7927C0.239521 13.4058 0.117188 12.968 0.117188 12.4791V3.46755C0.117188 3.01959 0.239521 2.6071 0.483337 2.23038C0.727579 1.85365 1.05843 1.52772 1.47547 1.25273C1.89251 0.978023 2.37575 0.759081 2.9249 0.596045C3.47434 0.433293 4.06418 0.351562 4.69498 0.351562H15.9867C17.4109 0.351562 18.5399 0.61137 19.374 1.13056C20.1671 1.62421 20.5833 2.38078 20.622 3.39915C20.6236 3.44257 20.6094 3.48046 20.5792 3.51196C20.549 3.54318 20.5119 3.55921 20.4683 3.55921H5.52169C5.35201 3.55921 5.21366 3.69756 5.21366 3.8674V12.2012C5.21366 12.3711 5.35201 12.5096 5.52169 12.5096H15.2511C15.4208 12.5096 15.5591 12.3711 15.5591 12.2012C15.5591 10.9547 15.5591 9.70888 15.5591 8.46277C15.5591 8.3958 15.5184 8.33875 15.4554 8.3169C15.3919 8.29505 15.3251 8.31506 15.2838 8.36784L14.4753 9.40182C14.3545 9.55634 14.1861 9.63836 13.9902 9.63836H11.8973C10.6764 9.63836 9.62362 9.38366 8.73851 8.87469C7.74822 8.30456 7.25846 7.69044 7.25846 6.5543C7.25846 6.46959 7.32777 6.4002 7.41254 6.4002H20.3171C20.4869 6.4002 20.6251 6.53855 20.6251 6.70854V12.4791ZM43.2863 12.4791C43.2863 13.029 43.1644 13.4973 42.9201 13.8842C42.6762 14.2712 42.3453 14.5971 41.9283 14.8619C41.5113 15.1268 41.018 15.3253 40.4484 15.4576C39.8785 15.5898 39.2784 15.6561 38.6478 15.6561H27.3257C26.7153 15.6561 26.1355 15.5796 25.5861 15.427C25.0369 15.2741 24.5537 15.0604 24.1366 14.7854C23.7196 14.5104 23.3889 14.1797 23.1447 13.7927C22.9007 13.4058 22.7784 12.968 22.7784 12.4791V3.46755C22.7784 3.01959 22.9007 2.6071 23.1447 2.23038C23.3889 1.85365 23.7196 1.52772 24.1366 1.25273C24.5537 0.978023 25.0369 0.759081 25.5861 0.596045C26.1355 0.433293 26.7254 0.351562 27.3562 0.351562H38.6478C40.072 0.351562 41.2011 0.61137 42.0352 1.13056C42.8283 1.62421 43.2445 2.38078 43.2832 3.39915C43.2847 3.44257 43.2706 3.48046 43.2404 3.51196C43.2103 3.54318 43.173 3.55921 43.1295 3.55921H28.1829C28.0132 3.55921 27.8748 3.69756 27.8748 3.8674V12.2012C27.8748 12.3711 28.0132 12.5096 28.1829 12.5096H37.9123C38.0821 12.5096 38.2203 12.3711 38.2203 12.2012C38.2203 10.9547 38.2203 9.70888 38.2203 8.46277C38.2203 8.3958 38.1796 8.33875 38.1165 8.3169C38.053 8.29505 37.9863 8.31506 37.945 8.36784L37.1365 9.40182C37.0157 9.55634 36.8473 9.63836 36.6514 9.63836H34.5585C33.3376 9.63836 32.2848 9.38366 31.3997 8.87469C30.4094 8.30456 29.9196 7.69044 29.9196 6.5543C29.9196 6.46959 29.9889 6.4002 30.0737 6.4002H42.9783C43.1481 6.4002 43.2863 6.53855 43.2863 6.70854V12.4791ZM84.6716 12.4791C84.6716 13.5787 84.2188 14.3884 83.3133 14.9076C82.4081 15.4271 81.2229 15.6866 79.758 15.6866H68.8938C68.2834 15.6866 67.6884 15.6203 67.1084 15.4881C66.5287 15.3558 66.0097 15.1521 65.552 14.8771C65.0944 14.6024 64.7281 14.2712 64.4534 13.8842C64.2073 13.5375 64.0708 13.1336 64.0456 12.6723C64.0432 12.6286 64.0573 12.5897 64.0875 12.558C64.1177 12.5259 64.1556 12.5096 64.1997 12.5096H79.2671C79.4368 12.5096 79.575 12.3711 79.575 12.2012C79.575 10.9533 79.5747 9.70576 79.5747 8.45809C79.5747 8.39126 79.534 8.33421 79.4709 8.31222C79.4074 8.29037 79.3406 8.31038 79.2994 8.36316L78.4872 9.40182C78.3664 9.55634 78.198 9.63836 78.0021 9.63836H68.6801C68.0697 9.63836 67.4848 9.57195 66.9254 9.43971C66.3658 9.30718 65.8723 9.1037 65.4451 8.82871C65.018 8.55372 64.6774 8.21758 64.4229 7.82056C64.1685 7.4234 64.0413 6.9499 64.0413 6.4002V3.86471C64.0413 3.25357 64.1685 2.72431 64.4229 2.27635C64.6774 1.82797 65.018 1.46145 65.4451 1.17653C65.8723 0.891326 66.3658 0.6826 66.9254 0.550072C67.4848 0.417827 68.0797 0.351562 68.7105 0.351562H79.8189C81.2838 0.351562 82.4588 0.601295 83.3438 1.10005C84.1871 1.57525 84.6288 2.3419 84.6685 3.39915C84.67 3.44257 84.6558 3.48046 84.6257 3.51196C84.5955 3.54318 84.5582 3.55921 84.5148 3.55921H69.568C69.3983 3.55921 69.2601 3.69756 69.2601 3.8674V6.09187C69.2601 6.26172 69.3983 6.4002 69.568 6.4002H79.7884C80.399 6.4002 80.9992 6.45625 81.589 6.56821C82.1791 6.68016 82.6978 6.85838 83.1453 7.10286C83.5933 7.34692 83.9594 7.66788 84.244 8.06504C84.529 8.46206 84.6716 8.91527 84.6716 9.42438V12.4791ZM102.017 15.6561C101.388 15.6561 100.862 15.605 100.446 15.5035C100.029 15.4021 99.6619 15.2791 99.3469 15.1369C99.0318 14.9944 98.7516 14.8311 98.5076 14.6479C98.2636 14.4652 98.0194 14.2916 97.7752 14.1287L92.0996 8.76798C91.9807 8.65574 91.8402 8.59998 91.6771 8.59998L90.7274 8.59956C90.6605 8.59956 90.6037 8.63999 90.5817 8.70356C90.5599 8.76671 90.5796 8.83368 90.6323 8.87497L91.685 9.69966C91.8394 9.82055 91.9213 9.98912 91.9213 10.1852C91.9213 11.9062 91.9213 13.6268 91.9213 15.3479C91.9213 15.5177 91.7829 15.6561 91.6133 15.6561H87.1327C86.9365 15.6561 86.8248 15.5014 86.8248 15.3096V0.659897C86.8248 0.489909 86.963 0.351562 87.1327 0.351562H91.6133C91.7829 0.351562 91.9213 0.489909 91.9213 0.659897V6.72698C91.9213 6.79084 91.9579 6.84532 92.0167 6.86973C92.0758 6.89371 92.1403 6.8808 92.185 6.83525L98.5741 0.351562H103.856C103.919 0.351562 103.973 0.38732 103.998 0.445638C104.023 0.503814 104.011 0.567667 103.967 0.612931L97.4763 7.30932C97.3584 7.4312 97.3612 7.62659 97.4829 7.74493L105.343 15.3913C105.389 15.436 105.402 15.5004 105.379 15.5596C105.355 15.6192 105.3 15.6561 105.236 15.6561H102.017ZM108.112 15.427C107.563 15.2744 107.08 15.0604 106.663 14.7854C106.246 14.5104 105.915 14.1797 105.671 13.7927C105.427 13.4058 105.305 12.968 105.305 12.4791V0.659897C105.305 0.489909 105.443 0.351562 105.613 0.351562H110.093C110.263 0.351562 110.401 0.489909 110.401 0.659897V15.3469C110.401 15.4323 110.371 15.5057 110.31 15.5658C110.25 15.6258 110.176 15.6558 110.091 15.6552C109.412 15.6508 108.809 15.6206 108.112 15.427ZM130.597 15.5951C130.332 15.5951 130.007 15.5796 129.62 15.5491C129.233 15.5186 128.816 15.4473 128.369 15.3355C127.921 15.2233 127.474 15.0604 127.026 14.8466C126.579 14.6329 126.161 14.3424 125.775 13.9759L120.312 8.84375L118.445 7.11421C118.326 7.00439 118.188 6.95018 118.027 6.95018H117.075C117.008 6.95018 116.951 6.99091 116.929 7.05405C116.908 7.11762 116.927 7.18445 116.98 7.22588L118.031 8.04929C118.185 8.17019 118.267 8.33875 118.267 8.53485V15.2867C118.267 15.4567 118.129 15.5951 117.959 15.5951H113.479C113.309 15.5951 113.171 15.4567 113.171 15.2867V0.659897C113.171 0.489909 113.309 0.351562 113.479 0.351562H114.209C114.473 0.351562 114.809 0.366887 115.216 0.397536C115.623 0.428043 116.045 0.499274 116.482 0.61137C116.92 0.723324 117.367 0.886076 117.825 1.10005C118.283 1.31403 118.705 1.6042 119.092 1.97071L124.524 7.10286C124.873 7.45277 125.287 7.798 125.653 8.14152C125.906 8.37891 126.141 8.59189 126.357 8.78033C126.473 8.88136 126.605 8.93102 126.759 8.93173L127.724 8.93542C127.791 8.9357 127.848 8.89526 127.87 8.83183C127.891 8.76855 127.872 8.70129 127.819 8.66L126.774 7.84113C126.62 7.72038 126.538 7.55167 126.538 7.35557V0.660181C126.538 0.490335 126.676 0.351846 126.846 0.351846H131.326C131.512 0.351846 131.634 0.499274 131.634 0.683594V15.2867C131.634 15.4567 131.496 15.5951 131.326 15.5951H130.597Z" fill="white"/>
<path d="M52.0616 4.2088V0.659897C52.0616 0.489909 52.2 0.351562 52.3696 0.351562H54.9581C55.1277 0.351562 55.2661 0.489909 55.2661 0.659897V4.2088C55.2661 4.37865 55.1277 4.51699 54.9581 4.51699H52.3696C52.2 4.51699 52.0616 4.37865 52.0616 4.2088ZM46.3119 6.41524H49.8572C50.027 6.41524 50.1652 6.55373 50.1652 6.72358V9.31456C50.1652 9.4844 50.027 9.62289 49.8572 9.62289H46.3119C46.1421 9.62289 46.0039 9.4844 46.0039 9.31456V6.72358C46.0039 6.55373 46.1421 6.41524 46.3119 6.41524ZM57.4705 6.41524H61.0159C61.1856 6.41524 61.3238 6.55373 61.3238 6.72358V9.31456C61.3238 9.4844 61.1856 9.62289 61.0159 9.62289H57.4705C57.3007 9.62289 57.1625 9.4844 57.1625 9.31456V6.72358C57.1625 6.55373 57.3007 6.41524 57.4705 6.41524ZM52.0616 15.3784V11.8295C52.0616 11.6595 52.2 11.5211 52.3696 11.5211H54.9581C55.1277 11.5211 55.2661 11.6595 55.2661 11.8295V15.3784C55.2661 15.5482 55.1277 15.6866 54.9581 15.6866H52.3696C52.2 15.6866 52.0616 15.5482 52.0616 15.3784Z" fill="#FF8753"/>
</svg>

<svg width="132" height="16" viewBox="0 0 132 16" fill="none" xmlns="http://www.w3.org/2000/svg"><path d="M20.625 12.48c0 .549-.122 1.017-.366 1.404a3.138 3.138 0 0 1-.992.978 4.74 4.74 0 0 1-1.48.596c-.57.132-1.17.198-1.8.198H4.665c-.61 0-1.19-.076-1.74-.229a5.097 5.097 0 0 1-1.45-.642 3.296 3.296 0 0 1-.992-.992 2.412 2.412 0 0 1-.366-1.314V3.468c0-.448.123-.86.366-1.238.245-.376.575-.702.992-.977.418-.275.9-.494 1.45-.657a6.204 6.204 0 0 1 1.77-.244h11.292c1.424 0 2.553.26 3.387.779.793.493 1.21 1.25 1.248 2.268a.15.15 0 0 1-.043.113.149.149 0 0 1-.11.047H5.521a.309.309 0 0 0-.308.308v8.334c0 .17.138.309.308.309h9.73c.169 0 .307-.139.307-.309V8.463a.152.152 0 0 0-.104-.146.152.152 0 0 0-.171.05l-.809 1.035a.597.597 0 0 1-.485.236h-2.093c-1.22 0-2.273-.254-3.158-.763-.99-.57-1.48-1.185-1.48-2.32 0-.085.069-.155.154-.155h12.904c.17 0 .308.139.308.309v5.77Zm22.661 0c0 .549-.122 1.017-.366 1.404a3.138 3.138 0 0 1-.992.978c-.417.265-.91.463-1.48.596-.57.132-1.17.198-1.8.198H27.326c-.61 0-1.19-.076-1.74-.229a5.098 5.098 0 0 1-1.45-.642 3.295 3.295 0 0 1-.991-.992 2.41 2.41 0 0 1-.367-1.314V3.468c0-.448.123-.86.367-1.238a3.37 3.37 0 0 1 .992-.977c.417-.275.9-.494 1.45-.657a6.204 6.204 0 0 1 1.77-.244h11.29c1.425 0 2.554.26 3.388.779.793.493 1.21 1.25 1.248 2.268a.15.15 0 0 1-.043.113.149.149 0 0 1-.11.047H28.183a.309.309 0 0 0-.308.308v8.334c0 .17.138.309.308.309h9.73c.17 0 .307-.139.307-.309V8.463a.152.152 0 0 0-.103-.146.152.152 0 0 0-.172.05l-.809 1.035a.597.597 0 0 1-.485.236h-2.093c-1.22 0-2.273-.254-3.158-.763-.99-.57-1.48-1.185-1.48-2.32 0-.085.069-.155.154-.155h12.904c.17 0 .308.139.308.309v5.77Zm41.386 0c0 1.099-.453 1.908-1.359 2.428-.905.52-2.09.779-3.555.779H68.894c-.61 0-1.206-.067-1.786-.199a5.282 5.282 0 0 1-1.556-.61 3.584 3.584 0 0 1-1.099-.994 2.261 2.261 0 0 1-.407-1.212.149.149 0 0 1 .041-.114.149.149 0 0 1 .113-.048h15.067c.17 0 .308-.139.308-.309V8.458a.153.153 0 0 0-.104-.146.152.152 0 0 0-.172.051l-.812 1.039a.597.597 0 0 1-.485.236H68.68c-.61 0-1.195-.066-1.755-.198a4.721 4.721 0 0 1-1.48-.611 3.34 3.34 0 0 1-1.022-1.008c-.255-.398-.382-.871-.382-1.42V3.864c0-.611.127-1.14.382-1.589a3.206 3.206 0 0 1 1.022-1.1c.427-.285.92-.493 1.48-.626A7.74 7.74 0 0 1 68.71.352H79.82c1.465 0 2.64.25 3.525.748.843.475 1.285 1.242 1.325 2.3a.15.15 0 0 1-.043.112.15.15 0 0 1-.111.047H69.568a.309.309 0 0 0-.308.308v2.225c0 .17.138.308.308.308h10.22c.611 0 1.211.056 1.801.168.59.112 1.109.29 1.556.535.448.244.814.565 1.099.962.285.397.428.85.428 1.36v3.054Zm17.345 3.176c-.629 0-1.155-.051-1.571-.152a6.3 6.3 0 0 1-1.1-.367 4.441 4.441 0 0 1-.838-.49 16.516 16.516 0 0 0-.733-.518L92.1 8.768a.594.594 0 0 0-.423-.168h-.95a.152.152 0 0 0-.145.104.152.152 0 0 0 .05.171l1.053.825c.154.12.236.29.236.485v5.163c0 .17-.138.308-.308.308h-4.48c-.197 0-.308-.155-.308-.346V.66c0-.17.138-.308.308-.308h4.48c.17 0 .308.138.308.308v6.067c0 .064.037.118.096.143.059.024.123.01.168-.035l6.39-6.483h5.281c.063 0 .117.035.142.094a.15.15 0 0 1-.031.167l-6.49 6.696a.309.309 0 0 0 .006.436l7.86 7.646c.046.045.059.11.036.169a.152.152 0 0 1-.143.096h-3.219Zm6.095-.229a5.087 5.087 0 0 1-1.449-.642 3.294 3.294 0 0 1-.992-.992 2.41 2.41 0 0 1-.366-1.314V.66c0-.17.138-.307.308-.307h4.48c.17 0 .308.138.308.308v14.687c0 .085-.03.159-.091.219a.297.297 0 0 1-.219.09c-.679-.005-1.282-.035-1.979-.229Zm22.485.168c-.265 0-.59-.015-.977-.046a7.664 7.664 0 0 1-1.251-.213 7.147 7.147 0 0 1-1.343-.49 4.86 4.86 0 0 1-1.251-.87l-5.463-5.132-1.867-1.73a.594.594 0 0 0-.418-.164h-.952a.153.153 0 0 0-.146.104.153.153 0 0 0 .051.172l1.051.823c.154.121.236.29.236.486v6.752c0 .17-.138.308-.308.308h-4.48a.308.308 0 0 1-.308-.308V.66c0-.17.138-.308.308-.308h.73c.264 0 .6.015 1.007.046.407.03.829.101 1.266.213.438.112.885.275 1.343.489.458.214.88.504 1.267.87l5.432 5.133c.349.35.763.695 1.129 1.039.253.237.488.45.704.638.116.101.248.151.402.152l.965.003a.153.153 0 0 0 .095-.275l-1.045-.819a.599.599 0 0 1-.236-.485V.66c0-.17.138-.308.308-.308h4.48c.186 0 .308.147.308.332v14.603c0 .17-.138.308-.308.308h-.729Z" fill="#fff"/><path d="M52.062 4.209V.659c0-.17.138-.307.308-.307h2.588c.17 0 .308.138.308.308v3.549c0 .17-.138.308-.308.308H52.37a.309.309 0 0 1-.308-.308Zm-5.75 2.206h3.545c.17 0 .308.139.308.309v2.59c0 .17-.138.309-.308.309h-3.545a.309.309 0 0 1-.308-.308V6.724c0-.17.138-.309.308-.309Zm11.159 0h3.545c.17 0 .308.139.308.309v2.59c0 .17-.138.309-.308.309H57.47a.309.309 0 0 1-.308-.308V6.724c0-.17.138-.309.308-.309Zm-5.41 8.963V11.83c0-.17.139-.308.309-.308h2.588c.17 0 .308.138.308.308v3.55c0 .17-.138.308-.308.308H52.37a.309.309 0 0 1-.308-.309Z" fill="#FF8753"/></svg>
